X: 2029
T: ROBERT MENZIES
R: Strathspey.
%R: strathspey
B: James Kerr "Merry Melodies" v.2 p.6 #29
Z: 2016 John Chambers <jc:trillian.mit.edu>
M: C
L: 1/8
K: A
uf |\
ve>vAuc>uA (3(cde) uc>uA | ve>vAuc>uA (3cde (3fga |\
ve>vAuc>uA (3(cde) uc>uA | e>ac>a b>Bd :|\
uf |:\
ve<a ve>uc va>vcue>uc |
e<a ve>uc vf>vBud>uf |\
[1 e<a e>uc A/B/c/d/ e>uc | e<a c>ua vb>vBud>uf :|\
[2 (3efg (3agf (3edc (3ecA | E>Ac>e b>Bd |]
